assets/icons/24px/outline/sparks-24px.svg

<svg width="24" height="24" viewBox="0 0 24 24" fill="none" xmlns="http://www.w3.org/2000/svg">
<path d="M5.5 3.99993V8.99993M3 6.49993H8M6 16.4999V20.4999M4 18.4999H8M11.5085 10.2833V10.2833C9.38987 10.8886 8.33056 11.1913 8.17827 11.7262C8.12732 11.9052 8.12732 12.0948 8.17827 12.2738C8.33056 12.8087 9.38987 13.1114 11.5085 13.7167V13.7167C11.933 13.838 12.1453 13.8986 12.3062 14.0314C12.3641 14.0791 12.4164 14.1332 12.4622 14.1926C12.5895 14.3579 12.6431 14.5725 12.7504 15.0015V15.0015C13.365 17.4602 13.6724 18.6895 14.2398 18.8424C14.4102 18.8884 14.5898 18.8884 14.7602 18.8424C15.3276 18.6895 15.635 17.4602 16.2496 15.0015V15.0015C16.3569 14.5725 16.4105 14.3579 16.5378 14.1926C16.5836 14.1332 16.6359 14.0791 16.6938 14.0314C16.8547 13.8986 17.067 13.838 17.4915 13.7167V13.7167C19.6101 13.1114 20.6694 12.8087 20.8217 12.2738C20.8727 12.0948 20.8727 11.9052 20.8217 11.7262C20.6694 11.1913 19.6101 10.8886 17.4915 10.2833V10.2833C17.067 10.162 16.8547 10.1014 16.6938 9.96861C16.6359 9.92088 16.5836 9.86679 16.5378 9.80737C16.4105 9.64208 16.3569 9.42755 16.2496 8.99848V8.99848C15.635 6.53981 15.3276 5.31047 14.7602 5.15756C14.5898 5.11162 14.4102 5.11162 14.2398 5.15756C13.6724 5.31047 13.365 6.53981 12.7504 8.99848V8.99848C12.6431 9.42755 12.5895 9.64208 12.4622 9.80737C12.4164 9.86679 12.3641 9.92088 12.3062 9.96861C12.1453 10.1014 11.933 10.162 11.5085 10.2833Z" stroke="white" stroke-width="2" stroke-linecap="round" stroke-linejoin="round"/>
</svg>

<svg width="24" height="24" fill="none" xmlns="http://www.w3.org/2000/svg"><path d="M5.5 4v5M3 6.5h5m-2 10v4m-2-2h4m3.508-8.217c-2.118.606-3.177.908-3.33 1.443a1 1 0 0 0 0 .548c.153.535 1.212.837 3.33 1.443.425.121.637.182.798.314a1 1 0 0 1 .156.162c.127.165.181.38.288.809.615 2.458.922 3.687 1.49 3.84.17.046.35.046.52 0 .568-.152.875-1.382 1.49-3.84.107-.43.16-.644.288-.81a1 1 0 0 1 .156-.16c.16-.133.373-.194.797-.315 2.12-.606 3.178-.908 3.33-1.443a1 1 0 0 0 0-.548c-.152-.535-1.21-.837-3.33-1.443-.424-.121-.636-.182-.797-.314a1 1 0 0 1-.156-.162c-.128-.165-.181-.38-.288-.809-.615-2.458-.922-3.688-1.49-3.84a1 1 0 0 0-.52 0c-.568.152-.875 1.382-1.49 3.84-.107.43-.16.644-.288.81a1 1 0 0 1-.156.16c-.16.133-.373.194-.797.315z" stroke="#fff" stroke-width="2" stroke-linecap="round" stroke-linejoin="round"/></svg>
